svgs/duotone/headphones-simple.svg

<svg xmlns="http://www.w3.org/2000/svg" viewBox="0 0 512 512"><!-- Font Awesome Pro 6.0.0-alpha2 by @fontawesome - https://fontawesome.com License - https://fontawesome.com/license (Commercial License) --><defs><style>.fa-secondary{opacity:.4}</style></defs><path d="M256 32C112.906 32 4.562 151.125 0 288V392C0 405.255 10.745 416 24 416H24C37.255 416 48 405.255 48 392V288C48 173.328 141.344 80.203 256 80.188C370.656 80.203 464 173.328 464 288V392C464 405.255 474.745 416 488 416L488 416C501.255 416 512 405.255 512 392V288C507.438 151.125 399.094 32 256 32Z" class="fa-secondary"/><path d="M160 288H144C108.656 288 80 316.703 80 352.125V415.875C80 451.297 108.656 480 144 480H160C177.656 480 192 465.641 192 447.938V320.062C192 302.344 177.656 288 160 288ZM368 288H352C334.344 288 320 302.344 320 320.062V447.938C320 465.641 334.344 480 352 480H368C403.344 480 432 451.297 432 415.875V352.125C432 316.703 403.344 288 368 288Z" class="fa-primary"/></svg>

<svg xmlns="http://www.w3.org/2000/svg" viewBox="0 0 512 512"><!--! Font Awesome Pro 6.3.0 by @fontawesome - https://fontawesome.com License - https://fontawesome.com/license (Commercial License) Copyright 2023 Fonticons, Inc. --><defs><style>.fa-secondary{opacity:.4}</style></defs><path class="fa-primary" d="M160 288L144 288c-35.34 0-64 28.7-64 64.13v63.75C80 451.3 108.7 480 144 480L160 480c17.66 0 32-14.34 32-32.05v-127.9C192 302.3 177.7 288 160 288zM368 288L352 288c-17.66 0-32 14.32-32 32.04v127.9c0 17.7 14.34 32.05 32 32.05L368 480c35.34 0 64-28.7 64-64.13v-63.75C432 316.7 403.3 288 368 288z"/><path class="fa-secondary" d="M256 32C112.9 32 4.563 151.1 0 288v104C0 405.3 10.75 416 23.1 416S48 405.3 48 392V288c0-114.7 93.34-207.8 208-207.8C370.7 80.2 464 173.3 464 288v104C464 405.3 474.7 416 488 416S512 405.3 512 392V287.1C507.4 151.1 399.1 32 256 32z"/></svg>
